src/actions/24/newline.svg

<svg xmlns="http://www.w3.org/2000/svg" viewBox="0 0 24 24">
    <path d="M11 5v2H9l3 4 3-4h-2V5h-2zm-7 7v1h16v-1H4z" style="fill:currentColor;fill-opacity:1;stroke:none;color:#050505;opacity:.7" transform="translate(1 1)"/>
</svg>

<svg xmlns="http://www.w3.org/2000/svg" viewBox="0 0 24 24">
  <defs id="defs3051">
    <style type="text/css" id="current-color-scheme">
      .ColorScheme-Text {
        color:#363636;
      }
      </style>
  </defs><g transform="translate(1,1)">
 <path 
     style="fill:currentColor;fill-opacity:1;stroke:none" 
    d="M 11 5 L 11 6 L 11 7 L 9 7 L 12 11 L 15 7 L 13 7 L 13 6 L 13 5 L 11 5 z M 4 12 L 4 13 L 20 13 L 20 12 L 4 12 z "
     class="ColorScheme-Text"
     />
</g></svg>
